X:4
T:Requiem For The Stewart Tartan
T:Medley 2019
R:Death March
C:Adam Blaine
M:3/4
L:1/8
K:D
"The End of an era"
[| {g}B4 {gcd}c{e}B | {Gdc}d4 e2 | {fege}f4 {gf}g2 | {a}e4 {g}f>e | 
{Gdc}d4 e2 | {g}(f2 f>)e d2 | {gcd}c<{e}(B B4) | {gBG}B4 {G}A2 |
{g}B4 c2 | {Gdc}d4 {g}ed | {ge}f4 {gf}g2 | {a}e4 {ag}a2 | 
{e}(f2 f>)e d2 | {gef}e4 {B}c2 | {gcd}c<{e}(B B4) | {gBG}B4 {g}de ||
"A new day dawns"{g}f4 {g}d>f | {gf}g4 {ag}a2 | {e}(f2 f>>)gf// e2 | {A}e4 {g}d>e |
{g}f4 {gf}g2 | {a}e4 d2 | {gcd}c6 | {GdG}c4 {g}d>e |
{g}f4 {ag}a2 | {e}(f2 f>)e d2 | {gef}e4 {AGAG}A2 |[M: 4/4] {gB}c6 {g}d>c |
[M: 3/4]"   All together now"{g}B4 d2 | {ge}(f2 f>)e d2 | {gcd}c<{e}(B HB4) |]
